packages/ui-icons/svg/Line/save.svg

<svg viewBox="0 0 1920 1920" version="1.1" xmlns="http://www.w3.org/2000/svg">
    <path d="M790.705882,338.823529 L790.705882,451.764706 L395.411765,451.764706 C364.352941,451.764706 338.941176,477.063529 338.941176,508.235294 L338.941176,508.235294 L338.941176,1252.74353 C356.672941,1246.41882 375.534118,1242.35294 395.411765,1242.35294 L395.411765,1242.35294 L1524.82353,1242.35294 C1544.70118,1242.35294 1563.56235,1246.41882 1581.29412,1252.74353 L1581.29412,1252.74353 L1581.29412,508.235294 C1581.29412,477.063529 1555.88235,451.764706 1524.82353,451.764706 L1524.82353,451.764706 L1129.52941,451.764706 L1129.52941,338.823529 L1524.82353,338.823529 C1618.22588,338.823529 1694.23529,414.832941 1694.23529,508.235294 L1694.23529,508.235294 L1694.23529,1750.58824 C1694.23529,1843.99059 1618.22588,1920 1524.82353,1920 L1524.82353,1920 L395.411765,1920 C302.009412,1920 226,1843.99059 226,1750.58824 L226,1750.58824 L226,508.235294 C226,414.832941 302.009412,338.823529 395.411765,338.823529 L395.411765,338.823529 L790.705882,338.823529 Z M1524.82353,1355.29412 L395.411765,1355.29412 C364.352941,1355.29412 338.941176,1380.59294 338.941176,1411.76471 L338.941176,1411.76471 L338.941176,1750.58824 C338.941176,1781.76 364.352941,1807.05882 395.411765,1807.05882 L395.411765,1807.05882 L1524.82353,1807.05882 C1555.88235,1807.05882 1581.29412,1781.76 1581.29412,1750.58824 L1581.29412,1750.58824 L1581.29412,1411.76471 C1581.29412,1380.59294 1555.88235,1355.29412 1524.82353,1355.29412 L1524.82353,1355.29412 Z M1016.62212,-0.0225882353 L1016.62212,880.128 L1262.83388,633.803294 L1342.68329,713.652706 L960.151529,1096.29741 L577.506824,713.652706 L657.356235,633.803294 L903.680941,880.128 L903.680941,-0.0225882353 L1016.62212,-0.0225882353 Z M564.823529,1468.23529 C502.48,1468.23529 451.882353,1518.94588 451.882353,1581.17647 C451.882353,1643.40706 502.48,1694.11765 564.823529,1694.11765 C627.167059,1694.11765 677.764706,1643.40706 677.764706,1581.17647 C677.764706,1518.94588 627.167059,1468.23529 564.823529,1468.23529 L564.823529,1468.23529 Z" stroke="none" stroke-width="1" fill-rule="evenodd"/>
</svg>

<svg viewBox="0 0 1920 1920" version="1.1" xmlns="http://www.w3.org/2000/svg">
    <path d="M1524.824 338.824c93.402 0 169.411 76.009 169.411 169.411v1242.353c0 93.403-76.01 169.412-169.411 169.412H395.412C302.009 1920 226 1843.99 226 1750.588V508.235c0-93.402 76.01-169.411 169.412-169.411h395.294v112.94H395.412c-31.06 0-56.47 25.3-56.47 56.471v744.509c17.73-6.325 36.592-10.391 56.47-10.391h1129.412c19.877 0 38.738 4.066 56.47 10.39V508.236c0-31.171-25.412-56.47-56.47-56.47h-395.295V338.824h395.295zm56.47 1129.411v-56.47c0-31.172-25.412-56.47-56.47-56.47H395.412c-31.06 0-56.47 25.298-56.47 56.47v338.823c0 31.172 25.41 56.47 56.47 56.47h1129.412c31.058 0 56.47-25.298 56.47-56.47v-282.353zM577.507 713.653l79.85-79.85L903.68 880.128V-.022h112.941v880.15l246.212-246.325 79.85 79.85-382.532 382.644-382.645-382.644zm-12.683 754.582c-62.344 0-112.942 50.71-112.942 112.941s50.598 112.942 112.942 112.942c62.343 0 112.94-50.71 112.94-112.942 0-62.23-50.597-112.94-112.94-112.94z" stroke="none" stroke-width="1" fill-rule="evenodd"/>
</svg>
